X:1
T:Crew of the Whirlwind
M:6/8
L:1/8
K:D
 A,| DDD E2 E| F3 GGG| A2 A A2 G| F3 z2 F| G2 A BAG| F2- AA-G F| E2 E F2 D|\
 E3 z AA| D2 D D2 F| A A3 z F| G2 G F2 E| D2 z2 A,A,| D2 D E2 E| F2 F G2 G|\
 F2 F E2 E| D2 A A2 A| B3 d3-| d3 c2 B| AAA A2- F| D2 A A2 A| B3 d3-|\
 d3 c2 B| A2 F D3-| D z A A2 A| B3 d3-| d3 c2 B| A3 F3| D3 z2 E| FFF F2 F|\
 F2 G A2 G| F2 D E2 C| D3 z2||
